X:1
%
%%indent         1.5cm
%%topmargin      5.0cm
%%titlespace     -3.0cm
%%sysstaffsep    55pt
%%systemsep      125pt
%
T:Sonata Quarta
T:a flauto solo
C:P. B. Bellinzani, 1720
B:Facsimile Spes, Firenze
M:12/8
L:1/8
K:Gminor
%
V:F clef=treble        name=Flauto space=+10pt bracket=2
V:B clef=bass          name=Basso  
Q:"Adagio"
[V:F] d>BG G2g g2^f z2a- | a>^fd c2c' -c'>BA B2g- |\
	g>ed c2B
[V:B] g3 G3 "4""3#"d3 d3 | ^f3 "6"=e2"5"^f "9"g3 "8"g3 |\
	_e3 "6""5"=e3
[V:F] A2g f2A | B2e d>cB B2A d2c |\
	B>AG g>a^f g>a^f g>a^f |
[V:B] f2_e "6"d2"6"c | B2"6"c "6"d2"5"e "4""3"f2f "6"f2"5"^f |\
	g3 G2"6#"A "6"B2"6#"A G2"6#"A |
[V:F] g2=f =e>fd ^c2A A2a- | a=Bg- g^cg- g>f=e f>ga | b2d b2^c 
[V:B] "6"B2"6\="A "6\="G>"6"A"6"B "#"A3 z2 "6"f |\
	"9\n3\=""8"g>f=e "7\n#"a2"5"^c "4"d3- "3"d>ef | g2z z2"#"a
[V:F] d3- d>=ef | g2g g2g A2a- a2g |\
	f>=ed _e>d^c d6 :: ^f>ga c2a- 
[V:B] b2a g2f | =e>gf e2d "6"^c2A "7"=B2"5"^c |\
	d>=ef "6b""5"g2"#"a "\="d6 :: "#"d3 "5"^f3
[V:F] a>BA B2d | g>ab _e2e e>dc d2f |\
	g2f e2d c(ab) d(ec) | B3 z2b- 
[V:B] "9"g3 "8"G3 | z2g "5b"a2"7"f "4"b3 "3"B3 |\
	e2"6"d "6"c2B f2"5"g "7\n5"e2f | B2c d2e
[V:F] b>ag a2a- | a>g^f g2d (e>d)c (^f>"\="e)d |\
	c'6- c'2d ^f2c' |
[V:B] "4"f3 "3"F2^f | "9""8"g2"6#"a "6"b2g c2z "#"d2z |\
	"6"e2d c>de "5"^F3 z2"5"^f |
[V:F] b>ag _a>g^f g2d e3- | e>dc d3- d>cB c3- |\
	c2B B>cA G6 :|
[V:B] g>ab "6""5"c'2"#"d' g3 z2"b"c' | "7"f3 z2b "7"e3 z2"6"e |\
	"5"^F2G "6\n4""5\n3#"d2D G6 :|

